public/static/img/crypto1/LTC.svg

<svg width="32" height="32" viewBox="0 0 32 32" fill="none" xmlns="http://www.w3.org/2000/svg">
<path d="M0 16C0 20.2435 1.68571 24.3131 4.68629 27.3137C7.68687 30.3143 11.7565 32 16 32C20.2435 32 24.3131 30.3143 27.3137 27.3137C30.3143 24.3131 32 20.2435 32 16C32 11.7565 30.3143 7.68687 27.3137 4.68629C24.3131 1.68571 20.2435 0 16 0C11.7565 0 7.68687 1.68571 4.68629 4.68629C1.68571 7.68687 0 11.7565 0 16Z" fill="#D88C22"/>
<path d="M24.1448 24.9655L25.1855 21.092L15.0104 21.1111L16.3208 16.2546L19.3268 15.1755L20.1363 12.2077L17.0918 13.3639L19.2304 5.25049H13.1217L10.308 15.8307L7.99507 16.6401L7.18555 19.6079L9.53724 18.7215L7.91798 24.9269L24.1448 24.9655Z" fill="white"/>
</svg>

<svg width="32" height="32" fill="none" xmlns="http://www.w3.org/2000/svg"><path d="M0 16a16 16 0 1 0 32 0 16 16 0 0 0-32 0Z" fill="#D88C22"/><path d="m24.145 24.965 1.04-3.873-10.175.02 1.31-4.857 3.007-1.08.81-2.967-3.045 1.156L19.23 5.25h-6.108l-2.814 10.58-2.313.81-.81 2.968 2.352-.887-1.619 6.206 16.227.038Z" fill="#fff"/></svg>
